X:1
T:Title
%%score { ( 1 3 ) | ( 2 4 ) }
L:1/8
M:9/8
K:Ab
V:1 treble nm="Grand Piano"
V:3 treble 
V:2 bass 
V:4 bass 
V:1
 z3 z3[Q:1/4=100] [CE][DF][DG] | [CA]3 [CA]3 [CA][CG][CA] | B3 B3 EGA | [GB]3 [GB]3 [Gd][Ec][EB] | %4
 [Ec]6 [CE][DF][DG] | A3 A3 cdc | [DB]3 [DF]3 [FB][FA]F | E3 A3 GAB |[M:3/4] [CEA]6 |[M:3/8] EAc | %10
[M:9/8] [ce]6 z3 | [CEA]3 [A,CE]3 ABc | [Ac]3 z3 z3 |[M:21/16] e3/2-e3/2-e3/2- e3 z3 | %14
[M:9/8] [EAc]3- [EAc]2 [CEA] [DFB][DFA][A,DF] | [A,CE]3 [CEA]3 ABc | c3 c2 A BAG |[M:3/4] [CA]6 |] %18
V:2
 z3 z3 [A,,A,][A,,A,][A,,A,] | [A,,E,]3 [A,,E,]3 [A,,E,][A,,E,][A,,E,] | %2
 [E,G,D]3 [E,G,D]3 [E,G,][E,B,E][E,CE] | [E,D]3 [E,D]3 [E,B,][E,A,][E,G,] | %4
 [A,,A,]6 [A,,A,][A,,A,][A,,A,] | [F,A,C]3 [F,A,C]3 [F,=A,F][F,A,F][F,A,F] | %6
 [B,,B,]3 [B,,B,]3 [D,A,][D,A,][D,A,D] | [E,A,C]3 [E,CE]3 [E,B,E][E,CE][E,DE] |[M:3/4] A,,6 | %9
[M:3/8][K:treble] CEA |[M:9/8][K:bass] [A,,A,]C,E, A,2 A, [E,B,]E,E, | A,,3 A,,3[K:treble] FGA | %12
 F,F,F, F,2 [F,C] [B,,B,][B,,B,][B,,B,] |[M:21/16] B,B,/-B,/CD3/2- D3 [E,D][E,D]/-[E,D]/E, | %14
[M:9/8] A,3- A,2 A,, D,D,D, | A,,3 A,,3 [F,B,=D][F,B,D][F,B,D] | %16
 [E,A,E]3 [E,A,E]2 [E,A,C] [E,G,D][E,A,C][E,B,D] |[M:3/4] [A,,A,]6 |] %18
V:3
 x9 | x9 | x9 | x9 | x9 | x9 | x9 | x9 |[M:3/4] x6 |[M:3/8] x3 | %10
[M:9/8] z A,A, z2 [Ac] [Gd][CGc][DEB] | x9 | CCC [CAc]2 [Ae] [A=d][Ac][Ad] | %13
[M:21/16] GG/-G/GB3/2- B3 [Ge][Gf]/-[Gf]/[EGe] |[M:9/8] x9 | x9 | x9 |[M:3/4] x6 |] %18
V:4
 x9 | x9 | x9 | x9 | x9 | x9 | x9 | x9 |[M:3/4] x6 |[M:3/8][K:treble] x3 |[M:9/8][K:bass] x9 | %11
 x6[K:treble] x3 | x9 |[M:21/16] E,3/2-E,3/2-E,3/2- E,3 z3 |[M:9/8] x9 | x9 | x9 |[M:3/4] x6 |] %18

